X:1
T:A Sinner Made Whole
T:A Sinner Made Whole
T:Charles Hutchinson Gabriel
T:William McPherson Lighthall, 1906
T:Public Domain Courtesy of the Cyber Hymnal™
T:Public Domain Courtesy of the Cyber Hymnal™
C:Charles Hutchinson Gabriel
Z:Public Domain
Z:Courtesy of the Cyber Hymnal™
%%score ( 1 2 ) ( 3 4 )
L:1/8
Q:1/4=78
M:6/8
K:G
V:1 treble 
V:2 treble 
V:3 bass 
V:4 bass 
V:1
 [B,D]/[B,D]/ | [DG]>[DG][DG] [DG]>[DA][GB] | [Gd]>[Gd][Ge] [Gd]2 [GB] | %3
w: 1.~There’s a|song in my heart that my|lips can- not sing, ’Tis|
w: 2.~I shall|stand one day fault- less and|pure by His throne, Trans-|
w: 3.~All the|mu- sic of Heav- en, so|per- fect and sweet, Will|
 [DB]>[DB][DB] [DG][CF][B,G] | [Dc][Dc][DB] [DA]2 D | [DG]>[DG][DG] [DG]>[DA][GB] | %6
w: praise in the high- est to|Je- sus my king; Its|mu- sic each mo- ment is|
w: formed from my im- age, con-|formed to His own; Then|I shall find words for the|
w: blend with my song just to|make it com- plete, Thro’|ag- es un- end- ing the|
 [Gd]>[Gd][Ge] !fermata![Gd]2 [GB] | [Gd]>[Gd][Gd] [Gd]<[GB]G | %8
w: thrill- ing my soul, For|I was a sin- ner, but|
w: song of my soul, For|I was a sin- ner, but|
w: e- choes will roll, For|I was a sin- ner, but|
 [GB]!fermata![GB][DA] !fermata![DG]2 ||"^Refrain" [DG] | [FA]<[FA][GB] [Ac]2 [FA] | %11
w: Christ made me whole.|||
w: Christ made me whole.|A|sin- ner made whole! A|
w: Christ made me whole.|||
 [GB]<[GB][Gc] [Gd]2 [DB] | [DA]>[DA][DA] [G^c][GB]"^riten."[GA] | [Fd][Fd][Fd] !fermata![Fd]2 D | %14
w: |||
w: sin- ner made whole! The|Sav- ior has bought me and|ran- somed my soul! My|
w: |||
 [DG]>[DG][DG] [DG]<[DA][GB] | [Gd]>[Gd][Gd] [Ge]<!fermata![Gd][GB] | [Gd]>[Gd][Gd] [Gd]<[GB]G | %17
w: |||
w: heart it is sing- ing, the|an- them is ring- ing, For|I was a sin- ner, but|
w: |||
 [GB]!fermata![GB][DA] !fermata![DG]2 |] %18
w: |
w: Christ made me whole.|
w: |
V:2
 x | x6 | x6 | x6 | x5 D | x6 | x6 | x5 G | x5 || x | x6 | x6 | x6 | x5 D | x6 | x6 | x5 G | x5 |] %18
V:3
 [G,,G,]/[G,,G,]/ | [G,,G,B,]>[G,,G,B,][G,,G,B,] [G,B,]>[G,C][G,D] | %2
 [G,B,]>[G,B,][G,C] [G,B,]2 [G,D] | [G,,G,B,]>[G,,G,B,][G,,G,B,] [B,,G,][A,,D,][G,,G,] | %4
 [F,,A,][F,,A,][G,,G,] [D,F,]2 [D,C] | [G,,G,B,]>[G,,G,B,][G,,G,B,] [G,B,]>[G,C][G,D] | %6
 [G,B,]>[G,B,][G,C] !fermata![G,B,]2 [G,D] | [G,B,]>[G,B,][G,B,] [G,B,]<[G,D][B,,D] | %8
 [D,D][D,D][D,C] !fermata![G,,B,]2 || [G,B,] | [D,D]<[D,D][D,D] [D,D]2 [D,D] | %11
 [G,D]<[G,D][G,A,] [G,B,]2 G, | [F,A,]>[F,A,][F,A,] [E,A,][E,A,][E,A,] | %13
 [D,A,][D,A,][D,B,] !fermata![D,C]2 [D,C] | [G,,G,B,]>[G,,G,B,][G,,G,B,] [G,B,]<[G,C][G,D] | %15
 [G,B,]>[G,B,][G,B,] [G,C]<!fermata![G,B,][G,D] | [G,B,]>[G,B,][G,B,] [G,B,]<[G,D][B,,D] | %17
 [D,D]!fermata![D,D][D,C] !fermata![G,,G,B,]2 |] %18
V:4
 x | x6 | x6 | x6 | x6 | x6 | x6 | x6 | x5 || x | x6 | x5 G, | x6 | x6 | x6 | x6 | x6 | x5 |] %18

